!!!!SEGMENT: pl-wtm--r-1607--003_stefani-jozef--requiem-offertorium.krn
!!!cenid: 18xx:2358
!!!COM: Stefani, Józef
!!!COM-rismID:
!!!CDT: 1800/04/16-1876/03/19
!!!CNT: Polish
!!!OPR: Requiem
!!!OTL: Offertorium
!!!OMV: 003
!!!PDT:
!!!AGN: Sacred; Requiem
!!!SMS-siglum: PL-Wtm
!!!SMS-shelfmark: R 1607
!!!SMS-shelfwork: 001-003 M
!!!SMS-variant:
!!!SMS-altvar:
!!!NIFC-rismSourceID: 1001115431
!!!NIFC-islandoraID: pl-wtm:27353
!!!URL-pdf-islandora: https://repozytorium.nifc.pl/islandora/object/pl-wtm%3A27353/datastream/PDF/view
!!!URL-scan: https://polish.musicsources.pl/pl/lokalizacje/galeria/rekopisy/6385 @EN{Scan on Polish Music Herritage in Open Access Website} @PL{Skany w portalu Dziedzictwo Muzyki Polskiej w otwartym dostępie}
!!!ONB-nifc: UWAGA: części Requiem: 1. Requiem aeternam, 2. Dies irae, 3. Offertorium, 4. Sanctus, 5. Benedicuts, 6. Agnus Dei, 7. Salve Regina
!!!AIN: 1 empty 1 organ 2 tenor
!!!key:
**kern	**kern	**kern	**text	**text	**dynam	**kern	**text	**text	**dynam	**kern	**text	**text	**dynam
*part4	*part4	*part3	*part3	*part3	*part3	*part2	*part2	*part2	*part2	*part1	*part1	*part1	*part1
*staff5	*staff4	*staff3	*staff3	*staff3	*	*staff2	*staff2	*staff2	*	*staff1	*staff1	*staff1	*
*Iorgan	*Iorgan	*Iempty	*	*	*	*Itenor	*	*	*	*Itenor	*	*	*
*I"[Organo]	*I"[Organo]	*I"[Basſo]	*	*	*	*I"[Tenore IIo]	*	*	*	*I"[Tenore 1mo]	*	*	*
*>[A,B,C1,B,C2]	*[A,B,C1,B,C2]	*[A,B,C1,B,C2]	*[A,B,C1,B,C2]	*[A,B,C1,B,C2]	*[A,B,C1,B,C2]	*[A,B,C1,B,C2]	*[A,B,C1,B,C2]	*[A,B,C1,B,C2]	*[A,B,C1,B,C2]	*[A,B,C1,B,C2]	*[A,B,C1,B,C2]	*[A,B,C1,B,C2]	*[A,B,C1,B,C2]
*>A	*>A	*>A	*>A	*>A	*>A	*>A	*>A	*>A	*>A	*>A	*>A	*>A	*>A
*clefF4	*clefG2	*clefF4	*	*	*	*clefG2	*	*	*	*clefG2	*	*	*
*	*	*	*	*	*	*ITrd7c12	*	*	*	*ITrd7c12	*	*	*
*k[b-e-a-]	*k[b-e-a-]	*k[b-e-a-]	*	*	*	*k[b-e-a-]	*	*	*	*k[b-e-a-]	*	*	*
*E-:	*E-:	*E-:	*	*	*	*E-:	*	*	*	*E-:	*	*	*
*M3/4	*M3/4	*M3/4	*	*	*	*M3/4	*	*	*	*M3/4	*	*	*
=1	=1	=1	=1	=1	=1	=1	=1	=1	=1	=1	=1	=1	=1
*2\right	*2\right	*2\right	*	*	*	*2\right	*	*	*	*2\right	*	*	*
*	*	*^	*	*	*	*^	*	*	*	*^	*	*	*
!	!	!	!	!	!	!	!	!	!	!	!	!	!LO:TX:t=[segno]	!	!	!
!	!LO:TX:t=[segno]	!	!	!	!	!	!	!	!	!	!	!LO:TX:t=P:problem=all\right&colon; global	!	!	!	!
!	!	!	!	!	!	!	!	!	!	!	!	!LO:TX:a:t=dolce	!	!	!	!
!	!	!	!	!	!	!	!	!	!	!	!	!LO:TX:t=Allegro moderato	!	!	!	!
2E-\ 2G 2B-	2g/ 2b-	2E-/	4E-\	Do-	Chri-	.	4G/	4G\	.	.	.	2B-/	4B-\	.	.	.
.	.	.	4E-\	-mi-	.	.	2G/	4G\	.	.	.	.	4B-\	.	.	.
4E-\ 4A- 4c	4a-/ 4cc/	4ryy	4E-\	-ne	-ste	.	.	4A-\	.	.	.	4c/	4c\	.	.	.
*	*	*v	*v	*	*	*	*	*	*	*	*	*v	*v	*	*	*
*	*	*	*	*	*	*v	*v	*	*	*	*	*	*	*
=2	=2	=2	=2	=2	=2	=2	=2	=2	=2	=2	=2	=2	=2
*	*^	*	*	*	*	*	*	*	*	*	*	*	*
2D\ 2F 2B-	4.b-/	2f\	2D\	Je-	Je-	.	2F/	.	.	.	(4.B-/	.	.	.
.	8a-/	.	.	.	.	.	.	.	.	.	8A-/)	.	.	.
4E-\ 4G 4B-	4g/	4e-\	4E-\	-su	-zu	.	4G/	.	.	.	4G/	.	.	.
*	*v	*v	*	*	*	*	*	*	*	*	*	*	*	*
=3	=3	=3	=3	=3	=3	=3	=3	=3	=3	=3	=3	=3	=3
*^	*	*^	*	*	*	*^	*	*	*	*^	*	*	*
4.E-/ 4.G	[2.BB-\	4.e-/ 4.g	2BB-/	2ryy	Chri-	Kró-	.	4.E-/	2ryy	.	.	.	(4.G/	2ryy	.	.	.
8D/ 8F	.	8d/L 8f	.	.	.	.	.	8D/	.	.	.	.	8F/)	.	.	.	.
8E-/L 8G	.	8e-/ 8g	4BB-/	8BB-\	-ste	-lu	.	8E-/L	8E-\	.	.	.	8G/L	8G\	.	.	.
8F/J 8A-	.	8f/J 8a-	.	8BB-\	Rex	.	.	8F/J	8F\	.	.	.	8A-/J	8A-\	.	.	.
=4	=4	=4	=4	=4	=4	=4	=4	=4	=4	=4	=4	=4	=4	=4	=4	=4	=4
2E-/ 2G	2BB-\]	2e-/ 2g	2BB-/	4.BB-\	glo-	chwa-	.	2E-/	4.E-\	.	.	.	2G/	4.G\	.	.	.
.	.	.	.	8BB-\	-ri-	.	.	.	8E-\	.	.	.	.	8G\	.	.	.
4D/ 4F	4BB-\	4d/ 4f	4BB-/	4BB-\	-ae	-ły	.	4D/	4D\	.	.	.	4F/	4F\	.	.	.
*v	*v	*	*	*	*	*	*	*	*	*	*	*	*	*	*	*	*
!!LO:LB:g=original
=5	=5	=5	=5	=5	=5	=5	=5	=5	=5	=5	=5	=5	=5	=5	=5	=5
*	*^	*	*	*	*	*	*	*	*	*	*	*	*	*	*	*
2.BBn\ 2.D 2.G	2g/	2.d\	2BBn/	4BB\	Li-	Spraw	.	2D/	4D\	.	.	.	2G/	4G\	.	.	.
.	.	.	.	4BB\	-be-	.	.	.	4D\	.	.	.	.	4G\	.	.	.
.	4f/	.	4BB/	4BB\	-ra	by	.	4ryy	4D\	.	.	.	4ryy	4F\	.	.	.
*	*	*	*	*	*	*	*	*	*	*	*	*	*v	*v	*	*	*
=6	=6	=6	=6	=6	=6	=6	=6	=6	=6	=6	=6	=6	=6	=6	=6	=6
2.C\ 2.G	4f/	2.c\	2C/	4C\	a-	du-	.	2C/	4C\	.	.	.	(4F/	.	.	.
.	2e-/	.	.	4C\	-ni-	.	.	.	4C\	.	.	.	4E-/)	.	.	.
.	.	.	4C/	4C\	-mas	-sze	.	4C/	4C\	.	.	.	4E-/	.	.	.
=7	=7	=7	=7	=7	=7	=7	=7	=7	=7	=7	=7	=7	=7	=7	=7	=7
2D\ 2F 2B-	8.b-/L	2f\	2D/	4D\	om-	wszys-	.	2F/	4F\	.	.	.	(8.B-/L	.	.	.
.	32cc/LL	.	.	.	.	.	.	.	.	.	.	.	32c/LL	.	.	.
.	32b-/JJJ	.	.	.	.	.	.	.	.	.	.	.	32B-/JJJ)	.	.	.
.	4a-/	.	.	4D\	-nium	.	.	.	4F\	.	.	.	4A-/	.	.	.
4E-\ 4G 4B-	4g/	4e-\	4E-/	4E-\	fi-	-tkich	.	4E-/	4E-\	.	.	.	4G/	.	.	.
=8	=8	=8	=8	=8	=8	=8	=8	=8	=8	=8	=8	=8	=8	=8	=8	=8
*^	*	*	*	*	*	*	*	*	*	*	*	*	*^	*	*	*
2E-/ 2G	2.BB-\	2g/	2e-\	2BB-/	4.BB-\	-de-	wier-	.	2E-/	4.E-\	.	.	.	2G/	4.G\	.	.	.
.	.	.	.	.	8BB-\	-li-	.	.	.	8E-\	.	.	.	.	8G\	.	.	.
4D/ 4F	.	4d/ 4f	4ryy	4BB-/	4BB-\	-um	-nych	.	4D/	4D\	.	.	.	4F/	4F\	.	.	.
*v	*v	*	*	*	*	*	*	*	*	*	*	*	*	*	*	*	*	*
=9	=9	=9	=9	=9	=9	=9	=9	=9	=9	=9	=9	=9	=9	=9	=9	=9	=9
2.BB-\ 2.D 2.F	2f/	2.d\	4BB-/	8.BB-\	de-	wol-	.	4D/	8.D\	.	.	.	4F/	8.F\	.	.	.
.	.	.	.	16BB-\	-fun-	.	.	.	16D\	.	.	.	.	16F\	.	.	.
.	.	.	4BB-/	4BB-\	-cto-	-ne	.	4D/	4D\	.	.	.	4F/	4F\	.	.	.
.	4b-/	.	4BB-/	8BB-\	-rum	od	.	4D/	8D\	.	.	.	8B-/	8B-\	.	.	.
.	.	.	.	8BB-\	de	.	.	.	8D\	.	.	.	8B-/	8B-\	.	.	.
*	*	*	*v	*v	*	*	*	*	*	*	*	*	*v	*v	*	*	*
*	*	*	*	*	*	*	*v	*v	*	*	*	*	*	*	*
!!LO:PB:g=original
=10	=10	=10	=10	=10	=10	=10	=10	=10	=10	=10	=10	=10	=10	=10
2C\ 2F	4.b-/	2c\ 2e-	2C/	pae-	cier-	.	2E-/	.	.	.	(4.B-\	.	.	.
.	8an/L	.	.	.	.	.	.	.	.	.	8An\)	.	.	.
8D\L 8F	8b-/	8B-\L 8f	8D/	-nis	-pie-	.	8F/	.	.	.	8B-\	.	.	.
8AAn\J 8F	8cc/J	8c\J 8f	8AAn/	in-	-nia	.	8F/	.	.	.	8c\	.	.	.
*	*v	*v	*	*	*	*	*	*	*	*	*	*	*	*
=11	=11	=11	=11	=11	=11	=11	=11	=11	=11	=11	=11	=11	=11
4.BB-\ 4.F	4d/ 4f 4dd	4BB-/	-fer-	z mier-	.	4F/	.	.	.	4d\	.	.	.
.	8d/ 8f 8b-	8BB-/	-ni	-nych	.	8D/	.	.	.	8B-\	.	.	.
8BB-\L 8F	8d/L 8f 8b-	8BB-/	et	Wiecz-	.	8D/	.	.	.	8B-\	.	.	.
8C\ 8F	8c/ 8e- 8f 8an	8C/	de-	-nych	.	8E-/	.	.	.	8An\	.	.	.
8D\J 8F	8B-/J 8f 8b-	8D/	-pro-	ciem-	.	8F/	.	.	.	8B-\	.	.	.
=12	=12	=12	=12	=12	=12	=12	=12	=12	=12	=12	=12	=12	=12
*^	*	*	*	*	*	*^	*	*	*	*	*	*	*
2G/	4E-\	4B-/ 4e- 4g	(4E-\	-fun-	-no-	.	4G/	2G\	.	.	.	4G/	.	.	.
.	4C\	4e-/ 4g 4ee-	4C\)	.	-ści	.	4G/	.	.	.	.	4e-\	.	.	.
4FF/ 4F/	4ryy	4c/ 4e- 4f 4an	4F\	-do	nie	.	4F/	4F\	.	.	.	4An/	.	.	.
*v	*v	*	*	*	*	*	*v	*v	*	*	*	*	*	*	*
=13	=13	=13	=13	=13	=13	=13	=13	=13	=13	=13	=13	=13	=13
4.BB-/ 4.F	4e-/ 4f 4cc	4BB-/	la-	zna-	.	4E-/	.	.	.	4c\	.	.	.
.	8d/ 8f 8b-	8BB-/	-cu	-ły	.	8D/	.	.	.	8B-\	.	.	.
!	!	!	!	!	!LO:DY:a	!	!	!	!	!	!	!	!
8r	8r	8r	.	.	f	8r	.	.	.	8r	.	.	.
4BB-\ 4B-	4b-/	8.BB-/	li-	Wyr-	.	8.B-\	.	.	.	8.B-\	.	.	.
.	.	16BB-/	-be-	-wiy-	.	16B-\	.	.	.	16B-\	.	.	.
!!LO:LB:g=original
=14	=14	=14	=14	=14	=14	=14	=14	=14	=14	=14	=14	=14	=14
*	*	*^	*	*	*	*^	*	*	*	*^	*	*	*
2AAn\ 2An	2an/	2AAn/	2ryy	-ra	-ie	.	2An/	2ryy	.	.	.	2An/	2An\	.	.	.
4BB-\ 4B-	4b-/	4BB-/	8.BB-\	e-	ze	.	4B-/	8.B-\	.	.	.	4B-/	8.B-\	.	.	.
.	.	.	16BB-\	-as	.	.	.	16B-\	.	.	.	.	16B-\	.	.	.
=15	=15	=15	=15	=15	=15	=15	=15	=15	=15	=15	=15	=15	=15	=15	=15	=15
2C-X\ 2c-X	2cc-X\	2C-X/	4C-\	de	Lwa	.	2c-X/	4c-\	.	.	.	2c-X/	4c-\	.	.	.
.	.	.	4C-\	o-	.	.	.	4c-\	.	.	.	.	4c-\	.	.	.
4BB-\ 4B-	4b-\	4BB-/	8.BB-\	-re	pa-	.	4B-/	8.B-\	.	.	.	8B-/	8.B-\	.	.	.
.	.	.	.	.	.	.	.	.	.	.	.	8B-/	.	.	.	.
.	.	.	16BB-\	le	.	.	.	16B-\	.	.	.	.	16B-\	.	.	.
*	*	*v	*v	*	*	*	*	*	*	*	*	*v	*v	*	*	*
*	*	*	*	*	*	*v	*v	*	*	*	*	*	*	*
=16	=16	=16	=16	=16	=16	=16	=16	=16	=16	=16	=16	=16	=16
8.AAn\L 8.An	8.an/L	(8.AAn/L	o-	-szczę-	.	(8.An/L	.	.	.	(8.An/L	.	.	.
16BB-\Jk 16B-	16b-/Jk	16BB-/Jk)	.	.	.	16B-/Jk)	.	.	.	16B-/Jk)	.	.	.
8BB-\ 8B-	8b-/	8BB-/	-nis	-ki	.	8B-/	.	.	.	8B-/	.	.	.
8ryy	8r	8r	.	.	.	8r	.	.	.	8r	.	.	.
4BB-\ 4B-	4b-\	8.BB-/	ne	Od	.	8.B-\	.	.	.	8.B-\L	.	.	.
!	!	!	!LO:SIC:v:l:s=ab	!	!	!	!	!	!	!	!	!	!
.	.	16BB-/	ob-	pie-	.	16B-\	.	.	.	16B-\Jk	.	.	.
=17	=17	=17	=17	=17	=17	=17	=17	=17	=17	=17	=17	=17	=17
*	*^	*^	*	*	*	*^	*	*	*	*^	*	*	*
4.C-X\ 4.E- 4.G-X 4.c-X	4.e-/ 4.g-X 4.ee-	2ryy	4.C-X/	4C-\	-sor-	-kiel-	.	4.G-X/	4G-\	.	.	.	4.e-/	4e-\	.	.	.
.	.	.	.	8C-\	-be-	.	.	.	8G-\	.	.	.	.	8e-\	.	.	.
8C-\ 8E- 8G- 8c-	8e-/ 8g-	.	8C-/	8C-\	-at	-nej	.	8E-/	8E-\	.	.	.	8G-X/	8G-\	.	.	.
4C-\ 4E- 4G- 4c-	8.a-/L	4e-\	8.C-/	8.C-\	e-	ob-	.	8.E-/	8.E-\	.	.	.	8.A-/	8.A-\	.	.	.
.	16an/Jk	.	16C-/	16C-\	-as	-roń	.	16E-/	16E-\	.	.	.	16An/	16An\	.	.	.
*	*v	*v	*	*	*	*	*	*	*	*	*	*	*	*	*	*	*
!!LO:PB:g=original
=18	=18	=18	=18	=18	=18	=18	=18	=18	=18	=18	=18	=18	=18	=18	=18	=18
8.C-X\L 8.E- 8.G-X 8.c-X	8.e-/L 8.an	8.C-X/L	8.C-\	tar-	mę-	.	8.E-/L	8.E-\	.	.	.	8.An/L	8.An\	.	.	.
16BB-\Jk 16D 16F 16B-	16d/Jk 16b-	16BB-/Jk	16BB-\	-ta-	.	.	16D/Jk	16D\	.	.	.	16B-/Jk	16B-\	.	.	.
4BB-\ 4D 4F 4B-	8d/L 8b-	4BB-/	4BB-\	-rus	-ki	.	4D/	4D\	.	.	.	4B-/	4B-\	.	.	.
.	8f/J 8a-X	.	.	.	.	.	.	.	.	.	.	.	.	.	.	.
4r	8e-/L 8g	4r	4ryy	.	.	.	4r	4ryy	.	.	.	4r	4ryy	.	.	.
.	8B-/J 8f	.	.	.	.	.	.	.	.	.	.	.	.	.	.	.
=19	=19	=19	=19	=19	=19	=19	=19	=19	=19	=19	=19	=19	=19	=19	=19	=19
!LO:TX:t=P:problem=mixed beam	!	!	!	!	!	!	!	!	!	!	!	!	!	!	!	!
*tremolo	*	*	*	*	*	*	*	*	*	*	*	*	*	*	*	*
8EE-/L	2G/ 2e- 2g	2E-/	4.E-\	ne	Mi-	.	2E-/	4.E-\	.	.	.	2G/	4.G\	.	.	.
8E-\	.	.	.	.	.	.	.	.	.	.	.	.	.	.	.	.
8EE-/	.	.	.	.	.	.	.	.	.	.	.	.	.	.	.	.
8E-\	.	.	8E-\	ca-	.	.	.	8E-\	.	.	.	.	8G\	.	.	.
8EE-/	4A-/ 4f 4a-	4E-/	8E-\	-dant	-chał	.	4F/	8F\	.	.	.	4A-/	8A-\	.	.	.
8E-\J	.	.	8E-\	in	.	.	.	8F\	.	.	.	.	8A-\	.	.	.
*	*	*v	*v	*	*	*	*	*	*	*	*	*v	*v	*	*	*
*	*	*	*	*	*	*v	*v	*	*	*	*	*	*	*
=20	=20	=20	=20	=20	=20	=20	=20	=20	=20	=20	=20	=20	=20
!LO:TX:t=P:problem=mixed beam	!	!	!	!	!	!	!	!	!	!	!	!	!
8EE-/L	2B-/ 2g 2b-	8.E-\	ob-	wódz	.	8.G/L	.	.	.	8.B-\	.	.	.
8E-\	.	.	.	.	.	.	.	.	.	.	.	.	.
.	.	16E-\	-scu-	niech	.	16G/Jk	.	.	.	16B-\	.	.	.
8EE-/	.	4E-\	-rum	je	.	4G/	.	.	.	4B-\	.	.	.
8E-\	.	.	.	.	.	.	.	.	.	.	.	.	.
8EE-/	8.B-/L 8.g 8.b-	4E-\	sed	pro-	.	4G/	.	.	.	(8.B-\L	.	.	.
8E-\J	.	.	.	.	.	.	.	.	.	.	.	.	.
.	16g/Jk 16ee-	.	.	.	.	.	.	.	.	16e-\Jk)	.	.	.
=21	=21	=21	=21	=21	=21	=21	=21	=21	=21	=21	=21	=21	=21
!LO:TX:t=P:problem=mixed beam	!	!	!	!	!	!	!	!	!	!	!	!	!
8FF/L	4f/ 4a- 4ee-	4F\	si-	-wa-	.	4A-/	.	.	.	4e-\	.	.	.
8F\	.	.	.	.	.	.	.	.	.	.	.	.	.
8FF/	2f/ 2a- 2dd	4F\	-gni	-dzi	.	4A-/	.	.	.	4d\	.	.	.
8F\	.	.	.	.	.	.	.	.	.	.	.	.	.
8FF/	.	4F\	fer	na	.	4A-/	.	.	.	4d\	.	.	.
8F\J	.	.	.	.	.	.	.	.	.	.	.	.	.
!!LO:LB:g=original
=22	=22	=22	=22	=22	=22	=22	=22	=22	=22	=22	=22	=22	=22
!LO:TX:t=P:problem=mixed beam	!	!	!	!	!	!	!	!	!	!	!	!	!
8GG/L	2e-/ 2b- 2ee-	4G\	san-	o-	.	4B-\	.	.	.	4e-\	.	.	.
8G\	.	.	.	.	.	.	.	.	.	.	.	.	.
8GG/	.	4.G\	-ctus	-wej	.	4.B-\	.	.	.	4.e-\	.	.	.
8G\J	.	.	.	.	.	.	.	.	.	.	.	.	.
*Xtremolo	*	*	*	*	*	*	*	*	*	*	*	*	*
8GG\L 8G	8e-/L 8b- 8ee-	.	.	.	.	.	.	.	.	.	.	.	.
8AA-\J 8A-	8e-/J 8a- 8cc	8A-\	Mi	świa-	.	8A-/	.	.	.	8c\	.	.	.
=23	=23	=23	=23	=23	=23	=23	=23	=23	=23	=23	=23	=23	=23
*^	*^	*^	*	*	*	*^	*	*	*	*^	*	*	*
4D\ [4B-	2ryy	8.b-/L	4f\	4D/	8.D\	che-	-tło-	.	4F/	8.F\	.	.	.	8.B-/L	8.B-\	.	.	.
.	.	16a-/Jk	.	.	16D\	-li	.	.	.	16F\	.	.	.	16A-/Jk	16A-\	.	.	.
4E-\ 4B-_	.	4g/	4e-\	4E-/	8.E-\	re-	-ści	.	4E-/	8.E-\	.	.	.	4G/	8.G\	.	.	.
.	.	.	.	.	16E-\	-pre-	.	.	.	16E-\	.	.	.	.	16G\	.	.	.
8.B-/L]	4C\ 4E-	8.b-/L	4e-\	4C/	8.C\	-sen-	po-	.	4E-/	8.E-\	.	.	.	8.B-/L	8.B-\	.	.	.
16A-/Jk	.	16a-/Jk	.	.	16C\	-tat	.	.	.	16E-\	.	.	.	16A-/Jk	16A-\	.	.	.
*	*	*v	*v	*	*	*	*	*	*v	*v	*	*	*	*v	*v	*	*	*
*	*	*	*v	*v	*	*	*	*	*	*	*	*	*	*	*
=24	=24	=24	=24	=24	=24	=24	=24	=24	=24	=24	=24	=24	=24	=24
4E-/ 4G	4.BB-\	4g/	4BB-/	e-	-sa-	.	4E-/	.	.	.	4G/	.	.	.
8D/ 8F	.	8f/	8BB-/	-as,	-dzi	.	8D/	.	.	.	8F/	.	.	.
8r	8r	8r	8r	.	.	.	8r	.	.	.	8r	.	.	.
4BB-\ 4D 4F	4ryy	4d/ 4f	4BB-/	in	na	.	4D/	.	.	.	4F/	.	.	.
*v	*v	*	*	*	*	*	*	*	*	*	*	*	*	*
=25	=25	=25	=25	=25	=25	=25	=25	=25	=25	=25	=25	=25	=25
2BB-\ 2D 2F	2d/ 2f	2BB-/	lu-	któ-	.	2D/	.	.	.	2F/	.	.	.
4BB-\ 4F 4B-	4d/ 4b-	4BB-/	-cem	-rą	.	4D/	.	.	.	4B-\	.	.	.
!!LO:PB:g=original
=26	=26	=26	=26	=26	=26	=26	=26	=26	=26	=26	=26	=26	=26
*^	*^	*	*	*	*	*	*	*	*	*	*	*	*
4.B-/	2C\ 2F	4.b-/	2c\ 2e-	2C/	san-	ma	.	2E-/	.	.	.	(4.B-\	.	.	.
8An/	.	8an/	.	.	.	.	.	.	.	.	.	8An\)	.	.	.
8.D\L 8.F 8.B-	4ryy	8.d/L 8.b-	4ryy	8.D/	-ctam	przy-	.	8.F/	.	.	.	8.B-\	.	.	.
16AAn\Jk 16F	.	16c/Jk 16f 16cc	.	16AAn/	quam	-rze-	.	16F/	.	.	.	16c\	.	.	.
*v	*v	*	*	*	*	*	*	*	*	*	*	*	*	*	*
*	*v	*v	*	*	*	*	*	*	*	*	*	*	*	*
=27	=27	=27	=27	=27	=27	=27	=27	=27	=27	=27	=27	=27	=27
4.BB-\ 4.F	4d/ 4f 4dd	4BB-/	o-	-cze-	.	4F/	.	.	.	4d\	.	.	.
.	8d/ 8f 8b-	8BB-/	-lim	-nie	.	8D/	.	.	.	8B-\	.	.	.
!	!	!	!	!	!	!	!	!	!	!	!	!	!LO:DY:a
8BB-\L 8B-	8d/L 8f 8b-	8B-\	A-	A-	.	8B-\	.	.	.	8B-\	.	.	<
8AAn\ 8An	8e-/ 8g-X 8cc	8An\	-bra-	-bra-	.	8c\	.	.	.	8c\	.	.	.
8AA-X\J 8A-X	8f/J 8b- 8dd	8A-X\	-hae	-ham i	.	8B-\	.	.	.	8d\	.	.	[[
=28	=28	=28	=28	=28	=28	=28	=28	=28	=28	=28	=28	=28	=28
!	!	!	!	!	!	!	!	!	!	!	!	!	!LO:DY:a
4GG\ 4G	4e-/ 4b- 4ee-	(4G\	pro-	Je-	.	(4B-\	.	.	.	(4e-\	.	.	f
4AA-\ 4A-	4a-/ 4cc	4A-\)	.	-go	.	4A-\)	.	.	.	4c\)	.	.	.
4FF/ 4F	4a-\ 4cc 4ff	4F\	-mi-	na-	.	4A-\	.	.	.	4f\	.	.	.
=29	=29	=29	=29	=29	=29	=29	=29	=29	=29	=29	=29	=29	=29
[>2BB-\ [2B-	[2f/ [>2a- [2dd	(>[2BB-/	-si-	-sie-	.	(>2A-/	.	.	.	([2d\	.	.	.
8.BB-\L] 8.B-]	8.f/L] 8.a-] 8.dd]	8.BB-/L]	.	.	.	8.A-/L	.	.	.	8.d\L]	.	.	.
16C\Jk 16c	16e-/Jk 16g 16ee-	16C/Jk)	.	.	.	16G/Jk)	.	.	.	16e-\Jk)	.	.	.
!!LO:LB:g=original
=30	=30	=30	=30	=30	=30	=30	=30	=30	=30	=30	=30	=30	=30
4C\ 4c	4e-/ 4g 4ee-	4C/	-sti	-nie	.	4G/	.	.	.	4e-\	.	.	.
8r	8r	8r	.	.	.	8r	.	.	.	8r	.	.	.
8GG\L 8G	8B-/L 8e-	8G\	A-	A-	.	8B-\	.	.	.	16e-\LL	.	.	.
.	.	.	.	.	.	.	.	.	.	32f\L	.	.	.
.	.	.	.	.	.	.	.	.	.	32e-\JJJ	.	.	.
8FF\ 8F	8B-/ 8d	8F\	-bra-	-bra-	.	8A-\	.	.	.	8d\	.	.	.
8GG\J 8G	8B-/J 8e-	8G\	-he	-ham i	.	8B-\	.	.	.	8e-\	.	.	.
=31	=31	=31	=31	=31	=31	=31	=31	=31	=31	=31	=31	=31	=31
*	*	*^	*	*	*	*^	*	*	*	*^	*	*	*
8AA-\ 8A-	8c/	4A-\	2ryy	et	Je-	.	4c\	2ryy	.	.	.	(8.c\L	2ryy	.	.	.
8r	8r	.	.	.	.	.	.	.	.	.	.	.	.	.	.	.
.	.	.	.	.	.	.	.	.	.	.	.	16a-\Jk)	.	.	.	.
4FF/ 4F	4c/ 4a-	4F\	.	se-	-go	.	4c\	.	.	.	.	4a-\	.	.	.	.
4BBB-\ 4BB-	4F</ 4A-< 4B- 4d	8BB-\	4BB-/	-mi-	na-	.	4A-/	8A-\	.	.	.	4d/	8d\	.	.	.
.	.	8BB-\	.	-ni	.	.	.	8A-\	.	.	.	.	8d\	.	.	.
*	*	*v	*v	*	*	*	*	*	*	*	*	*v	*v	*	*	*
*	*	*	*	*	*	*v	*v	*	*	*	*	*	*	*
=32	=32	=32	=32	=32	=32	=32	=32	=32	=32	=32	=32	=32	=32
4.EE-\ 4.E-	4A-</ 4B- 4d 4f	4E-\	e-	-sie-	.	4A-/	.	.	.	4f\	.	.	.
.	8G</ 8B- 8e-	8E-\	-jus	-nie	.	8G/	.	.	.	8e-\	.	.	.
8r	(8g/L 8b-	8r	.	.	.	8r	.	.	.	8r	.	.	.
4r	8f/ 8a-	4r	.	.	.	4r	.	.	.	4r	.	.	.
.	8e-/J 8g	.	.	.	.	.	.	.	.	.	.	.	.
=33	=33	=33	=33	=33	=33	=33	=33	=33	=33	=33	=33	=33	=33
2.r	8.B-/L) 8.f	2.r	.	.	.	2.r	.	.	.	2.r	.	.	.
.	16e-/Jk 16g	.	.	.	.	.	.	.	.	.	.	.	.
.	8B-/L 8f	.	.	.	.	.	.	.	.	.	.	.	.
.	8f/ 8a-	.	.	.	.	.	.	.	.	.	.	.	.
.	8e-/ 8g	.	.	.	.	.	.	.	.	.	.	.	.
!	!LO:TX:b:t=V&colon;S&colon;	!	!	!	!	!	!	!	!	!	!	!	!
.	8B-/J 8f	.	.	.	.	.	.	.	.	.	.	.	.
!!LO:PB:g=original
=34	=34	=34	=34	=34	=34	=34	=34	=34	=34	=34	=34	=34	=34
*	*^	*	*	*	*	*	*	*	*	*	*	*	*
4r	4.G</ 4.e-	4.ryy	2.r	.	.	.	2.r	.	.	.	2.r	.	.	.
8r	.	.	.	.	.	.	.	.	.	.	.	.	.	.
[4.EE-\ [>4.E-	4.G/ 4.e-	8G</L	.	.	.	.	.	.	.	.	.	.	.	.
.	.	8F</ 8A-<	.	.	.	.	.	.	.	.	.	.	.	.
.	.	8F#X</J 8An<	.	.	.	.	.	.	.	.	.	.	.	.
=35	=35	=35	=35	=35	=35	=35	=35	=35	=35	=35	=35	=35	=35	=35
2.EE-\_ 2.E-_>	[2.e-/	8.G</L 8.B-<	2.r	.	.	.	2.r	.	.	.	2.r	.	.	.
.	.	16A-</Jk 16c<	.	.	.	.	.	.	.	.	.	.	.	.
.	.	4B-</ 4d-X<	.	.	.	.	.	.	.	.	.	.	.	.
.	.	4G</ 4B-<	.	.	.	.	.	.	.	.	.	.	.	.
=36	=36	=36	=36	=36	=36	=36	=36	=36	=36	=36	=36	=36	=36	=36
2.EE-\_ 2.E-_>	2.e-/_	4A-</ 4c<	2.r	.	.	.	2.r	.	.	.	2.r	.	.	.
.	.	4G</ 4B-<	.	.	.	.	.	.	.	.	.	.	.	.
.	.	4F#X</ 4An<	.	.	.	.	.	.	.	.	.	.	.	.
*	*v	*v	*	*	*	*	*	*	*	*	*	*	*	*
=37	=37	=37	=37	=37	=37	=37	=37	=37	=37	=37	=37	=37	=37
2.EE-\] 2.E-]	2.G<;/ 2.B-< 2.e-]	2.r	.	.	.	2.r	.	.	.	2.r	.	.	.
!!LO:LB:g=original
=38||	=38||	=38||	=38||	=38||	=38||	=38||	=38||	=38||	=38||	=38||	=38||	=38||	=38||
*k[b-e-]	*k[b-e-]	*k[b-e-]	*	*	*	*k[b-e-]	*	*	*	*k[b-e-]	*	*	*
*M3/4	*M3/4	*M3/4	*	*	*	*M3/4	*	*	*	*M3/4	*	*	*
!	!	!	!	!	!	!	!	!	!	!LO:TX:t=Andante	!	!	!
4rAA	2G</	4r	.	.	.	4r	.	.	.	4r	.	.	.
4rAA	.	4r	.	.	.	4r	.	.	.	4r	.	.	.
4DD\ 4D	4F</ 4G< 4Bn<	(4D^\	Ho-	Przyjm	.	(>4F/	.	.	.	(4Bn^\	Ho-	.	.
=39	=39	=39	=39	=39	=39	=39	=39	=39	=39	=39	=39	=39	=39
*	*	*^	*	*	*	*	*	*	*	*	*	*	*
2CC\ 2C	8.E-</L 8.G< 8.c<	8.C/)	8.C\	.	.	.	8.E-/)	.	.	.	8.c\)	.	.	.
.	16G</Jk 16e-	16C/	16ryy	-sti-	te	.	16G/	.	.	.	16e-\	-sti-	.	.
.	4G</ 4e-	4C/	2ryy	-as	pro-	.	4G/	.	.	.	4e-\	-as	.	.
8FF\L 8F	4A</	(8F\L	.	et	-śby	.	4F/	.	.	.	4A/	et	.	.
8EE-\J 8E-	.	8E-\J)	.	.	.	.	.	.	.	.	.	.	.	.
=40	=40	=40	=40	=40	=40	=40	=40	=40	=40	=40	=40	=40	=40	=40
*	*^	*	*	*	*	*	*	*	*	*	*^	*	*	*
4.DD\ 4.D	4.B-</	2.F</	(4.D\	2ryy	pre-	i	.	4.F/	.	.	.	4.B-/	4.B-\	pre-	.	.
8EE-\L 8E-	8A</L	.	8E-\)	.	-ces	.	.	8F/	.	.	.	8A/	8A\	-ces-	.	.
8DD\ 8D	8F</ 8B-<	.	8D/L	8D\	ti-	o-	.	8F/	.	.	.	8B-/L	8B-\	-ti-	.	.
8BBB-\J 8BB-	8B-</J 8d<	.	8BB-/J	8BB-\	-bi	.	.	8B-/	.	.	.	8d/J	8d\	-bi	.	.
*	*v	*v	*	*	*	*	*	*	*	*	*	*	*	*	*	*
=41	=41	=41	=41	=41	=41	=41	=41	=41	=41	=41	=41	=41	=41	=41	=41
*	*	*	*	*	*	*	*^	*	*	*	*	*	*	*	*
4.FF\ 4.F	8.B-</L 8.d<	4F/	8.F\	Do-	-fia-	.	8.B-/L	8.B-\	.	.	.	8.d/L	8.d\	Do-	.	.
.	16A</Jk 16c<	.	16F\	-mi-	.	.	16A/Jk	16A\	.	.	.	16c/Jk	16c\	-mi-	.	.
.	8A</ 8c<	8F/	8F\	-ne	-ry	.	8A/	8A\	.	.	.	8c/	8c\	-ne	.	.
8r	8r<	8r	8ryy	.	.	.	8r	8ryy	.	.	.	8r	8ryy	.	.	.
4r	4r<	(4F\	4ryy	lau-	Za	.	(4A/	4ryy	.	.	.	(4c\	4ryy	lau	.	.
!!LO:PB:g=original
=42	=42	=42	=42	=42	=42	=42	=42	=42	=42	=42	=42	=42	=42	=42	=42	=42
2.r	2.r	4En\)	4ryy	.	du-	.	4G/)	2ryy	.	.	.	8.c\L	4ryy	.	.	.
.	.	.	.	.	.	.	.	.	.	.	.	16B-\Jk)	.	.	.	.
.	.	8F/	4F\	-dis	-sze	.	8F/	.	.	.	.	8A/	4A\	.	.	.
.	.	8F/	.	.	zmar-	.	8F/	.	.	.	.	8A/	.	.	.	.
.	.	8F/	4F\	of-	-łych	.	8B-/L	8B-\L	.	.	.	(8d/	8d\L	.	.	.
.	.	8F/	.	.	.	.	8A/J	8A\J	.	.	.	8c/)	8c\J	.	.	.
=43	=43	=43	=43	=43	=43	=43	=43	=43	=43	=43	=43	=43	=43	=43	=43	=43
4r	4r	8.En\	4E/	-fe-	nie-	.	8.G/	4G\	.	.	.	8.c/L	8.c\	.	.	.
.	.	16E\	.	-ri-	-sio-	.	16G/	.	.	.	.	16B-/Jk	16B-\	.	.	.
4r	4r	4F\	4ryy	-mus	-ne	.	4F/	2ryy	.	.	.	4A/	4ryy	.	.	.
8D\L	8A</L 8f	8D/L	(8D\	tu	skróć	.	8A-X/L	.	.	.	.	(8f/	8f\L	.	.	.
8C\J	8F</J 8A<	8C/J	8C\)	.	im	.	8F/J	.	.	.	.	8A-X/)	8A-\J	.	.	.
*	*	*v	*v	*	*	*	*	*	*	*	*	*v	*v	*	*	*
*	*	*	*	*	*	*v	*v	*	*	*	*	*	*	*
=44	=44	=44	=44	=44	=44	=44	=44	=44	=44	=44	=44	=44	=44
2BB-\ 2D	2F</ 2G<	8.BB-/	sus-	w czy-	.	8.F/	.	.	.	8.G/	.	.	.
.	.	16BB-/	-ci-	-sciu	.	16F/	.	.	.	16G/	.	.	.
.	.	4BB-/	-pe	cię-	.	4F/	.	.	.	4G/	.	.	.
4BBn\	4F</ 4A-X< 4d<	4BBn/	pre-	-zkie	.	4A-X/	.	.	.	4d\	.	.	.
=45	=45	=45	=45	=45	=45	=45	=45	=45	=45	=45	=45	=45	=45
2.C\	4.F</ 4.A< 4.c<	4.C/	-a-	skróć	.	4.An/	.	.	.	4.c\	.	.	.
.	8F</ 8A<	8C/	-ni-	im	.	8F/	.	.	.	8A/	.	.	.
.	8F</L 8G<	8C/	-ma-	ciez-	.	8F/	.	.	.	8G/	.	.	.
.	8En</J 8c<	8C/	-bus	-kie	.	8En/	.	.	.	8c\	.	.	.
!!LO:LB:g=original
=46	=46	=46	=46	=46	=46	=46	=46	=46	=46	=46	=46	=46	=46
*	*	*^	*	*	*	*^	*	*	*	*^	*	*	*
8.C#X\L	8.En</L 8.B-<	(8.C#X/L	2ryy	il-	ka-	.	(8.En/L	2ryy	.	.	.	8.B-/L	2ryy	.	.	.
16D\Jk	16F</Jk 16A<	16D/Jk)	.	.	.	.	16F/Jk)	.	.	.	.	16A/Jk	.	.	.	.
4D\	4F</ 4A<	4D/	.	-lis	-ry	.	4F/	.	.	.	.	4A/	.	.	.	.
8D\L	8A</L 8f	8D/L	(8D\	tu	skróć	.	8A/L	(8A\	.	.	.	(8f/	8f\L	.	.	.
8Cn\J	8F</J 8A<	8Cn/J	8Cn\)	.	im	.	8F/J	8F\)	.	.	.	8A/)	8A\J	.	.	.
*	*	*v	*v	*	*	*	*	*	*	*	*	*v	*v	*	*	*
*	*	*	*	*	*	*v	*v	*	*	*	*	*	*	*
=47	=47	=47	=47	=47	=47	=47	=47	=47	=47	=47	=47	=47	=47
2BB-\ 2D	2F</ 2G<	8.BB-/	sus-	w czys-	.	8.F/	.	.	.	8.G/	.	.	.
.	.	16BB-/	-ci-	-cu	.	16F/	.	.	.	16G/	.	.	.
.	.	4BB-/	-pe	cię-	.	4F/	.	.	.	4G/	.	.	.
4BBn\ 4D	4F</ 4A-X< 4d<	4BBn/	pro	-zkie	.	4A-X/	.	.	.	4d\	.	.	.
=48	=48	=48	=48	=48	=48	=48	=48	=48	=48	=48	=48	=48	=48
2C\	4.F</ 4.A< 4.c<	8C/	a-	skróć	.	8An/	.	.	.	8c\	.	.	.
.	.	8C/	-ni-	im	.	8A/	.	.	.	8c\	.	.	.
.	.	8C/	-ma-	cięz-	.	8A/	.	.	.	8c\	.	.	.
.	8F</ 8A<	8C/	-bus	-kie	.	8F/	.	.	.	8A\	.	.	.
4CC\ 4C	8F</L 8G<	4C/	il-	ka-	.	8F/L	.	.	.	(8G\L	.	.	.
.	8En</J 8c<	.	.	.	.	8En/J	.	.	.	8c\J)	.	.	.
=49	=49	=49	=49	=49	=49	=49	=49	=49	=49	=49	=49	=49	=49
4.FF\	4.F</	4.F\	-lis.	-ry.	.	4.F/	.	.	.	4.F/	.	.	.
8r	8ryy	8r	.	.	.	8r	.	.	.	8r	.	.	.
4r	4ryy	8F\	Qua-	Nie-	.	4r	.	.	.	4r	.	.	.
.	.	8F\	-rum	-chaj	.	.	.	.	.	.	.	.	.
!!LO:PB:g=original
=50	=50	=50	=50	=50	=50	=50	=50	=50	=50	=50	=50	=50	=50
2.r	2.r	8.G-X\	ho-	bę-	.	2.r	.	.	.	2.r	.	.	.
.	.	16G-\	-di-	-dą	.	.	.	.	.	.	.	.	.
.	.	4F\	-e	wy-	.	.	.	.	.	.	.	.	.
.	.	(8En\L	me-	-ba-	.	.	.	.	.	.	.	.	.
.	.	8F\J)	.	.	.	.	.	.	.	.	.	.	.
=51	=51	=51	=51	=51	=51	=51	=51	=51	=51	=51	=51	=51	=51
*	*	*^	*	*	*	*^	*	*	*	*	*	*	*
2.r	2.r	8.E-X/L	8.E-X\	-mo-	-wio-	.	4r	2ryy	.	.	.	2.r	.	.	.
.	.	16D-X/Jk	16D-\	-ri-	.	.	.	.	.	.	.	.	.	.	.
.	.	4C/	4ryy	-am	-ne	.	4r	.	.	.	.	.	.	.	.
.	.	(8F/	8F\L	fa-	wy-	.	(8A/	4A\	fa-	wy-	.	.	.	.	.
.	.	8E-/	8E-\J	.	-ba-	.	8A/	.	.	-ba-	.	.	.	.	.
=52	=52	=52	=52	=52	=52	=52	=52	=52	=52	=52	=52	=52	=52	=52	=52
2.r	2.r	8.D-X/L)	8.D-\	-[[ci]]-	-wio-	.	8.B-/L	8.B-\	.	-wio-	.	4r	.	.	.
.	.	16C/Jk	16C\	-ci-	.	.	16c/Jk)	16c\	-ci-	.	.	.	.	.	.
.	.	8BB-/	2ryy	-mus	-ne	.	8d-X\	8ryy	-mus	-ne	.	8r	.	.	.
.	.	8r	.	.	.	.	8r	8ryy	.	.	.	(8B-\L	Qua-	Nie-	.
.	.	4r	.	.	.	.	4r	4ryy	.	.	.	8g-X\J)	.	.	.
.	.	.	.	.	.	.	.	.	.	.	.	8f\	-rum	-chaj	.
!!LO:LB:g=original
=53	=53	=53	=53	=53	=53	=53	=53	=53	=53	=53	=53	=53	=53	=53	=53
*	*	*	*	*	*	*	*	*	*	*	*	*^	*	*	*
4r	4r	4r	4.ryy	.	.	.	4r	4.ryy	.	.	.	8.en\	4en/	ho-	bę-	.
.	.	.	.	.	.	.	.	.	.	.	.	16e\	.	-di-	.	.
8r	8r	8r	.	.	.	.	8r	.	.	.	.	8e/	8e/	-e	-dą	.
4.GG-X\ 4.G-X	8B-/L 8d-X	8G-X\	4G-/	me-	wy-	.	8B-\	4B-/	.	.	.	8d-X\	8d-/L	me-	wy-	.
.	8B-/ 8c	8G-\	.	-mo-	.	.	8B-\	.	.	.	.	8c\	8c/J	-mo-	-[[ba]]-	.
.	8B-/J	8G-\	8G-/	-riam	-ba-	.	8B-\	8B-/	.	.	.	8B-\	8ryy	-riam	-ba-	.
=54	=54	=54	=54	=54	=54	=54	=54	=54	=54	=54	=54	=54	=54	=54	=54	=54
2FF\ 2F	4A/	8.F\	4F/	fa-	-wio-	.	8.A/	4A\	.	.	.	8.A\	8.A/L	fa-	-wio-	.
.	.	16F\	.	-ci-	.	.	16A/	.	.	.	.	16c\	16c/Jk	-ci-	.	.
.	8A/ 8c	8F\	8ryy	-mus	-ne	.	8A/	8A\	.	.	.	8c\	8ryy	-mus	-ne	.
.	8A/ 8f	8F\L	8F/	fac	Na	.	8A/	8A\L	.	.	.	8f\L	8f/	.	.	.
4AA-X\ 4A-X	4B-/ 4d	8A-X\J	8A-/	.	któ-	.	8B-/	8B-\J	.	.	.	8d\J	8d/	.	.	.
.	.	8A-/	8ryy	eas	-rą	.	8B-/	8ryy	.	.	.	8d/	8ryy	.	.	.
=55	=55	=55	=55	=55	=55	=55	=55	=55	=55	=55	=55	=55	=55	=55	=55	=55
2GG\ 2G	(>4B-/ 4e-	8.G\	4.G/	Do-	ma	.	8.B-/	4.B-\	.	.	.	8.e-/L	8.e-\	.	.	.
.	.	16G\	.	-mi-	.	.	16B-/	.	.	.	.	16B-/Jk	16B-\	.	.	.
.	8B-/)	8G\	.	-ne	.	.	8B-/	.	.	.	.	8B-/	8B-\	.	.	.
.	8B-/ 8e-	8G\	8G/L	de	przy-	.	8B-/	4B-\	.	.	.	8e-/L	8e-\	.	.	.
4AA-X\ 4A-X	4B-/ 4d	8A-X\	8A-/J	mor-	.	.	8B-/	.	.	.	.	8d/J	8d\	.	.	.
.	.	8A-\	8A-/	-te	-rze-	.	8B-/	8B-\	.	.	.	8ryy	8d\	.	.	.
!!LO:PB:g=original
=56	=56	=56	=56	=56	=56	=56	=56	=56	=56	=56	=56	=56	=56	=56	=56	=56
2GG/ 2G	2B-/ 2e-	8.G\	4G/	tran-	-cze-	.	8.B-\	4B-/	.	.	.	8.e-\	4e-/	.	.	.
.	.	16G\	.	-si-	.	.	16B-\	.	.	.	.	16e-\	.	.	.	.
.	.	4G\	4G/	-re	-nie	.	4B-\	4B-/	.	.	.	4e-\	4e-/	.	.	.
4DD/ 4D	4B-/ 4f	4D\	4D/	ad	A-	.	4B-\	(4B-/	.	.	.	(4f\	4f/	.	.	.
=57	=57	=57	=57	=57	=57	=57	=57	=57	=57	=57	=57	=57	=57	=57	=57	=57
4.EE-/ 4.E-	4.B-/ 4.e- 4.g	8.E-/	4E-\	vi-	-Bra-	.	8.B-/	4B-\)	.	.	.	8.g/)	4g\	.	.	.
.	.	16E-/	.	.	.	.	16B-/	.	.	.	.	16g/	.	.	.	.
.	.	8E-/	8E-\	-tam	-ham	.	8B-/	8B-\	.	.	.	8g/	8g\	.	.	.
8r	8r	8r	8ryy	.	.	.	8r	8ryy	.	.	.	8r	8ryy	.	.	.
4r	4r	4En\	4ryy	ad	i	.	4G/	4ryy	.	.	.	(8B-\L	4ryy	.	.	.
.	.	.	.	.	.	.	.	.	.	.	.	8c\J)	.	.	.	.
*	*	*	*	*	*	*	*	*	*	*	*	*v	*v	*	*	*
=58	=58	=58	=58	=58	=58	=58	=58	=58	=58	=58	=58	=58	=58	=58	=58
2.r	2.r	(4F/	2F\	vi-	je-	.	4B-/	(>2B-\	.	.	.	(4d\	.	.	.
.	.	4F/	.	.	go	.	4B-/	.	.	.	.	(4c\)	.	.	.
.	.	4FF/)	4ryy	.	na-	.	4A\)	4ryy	.	.	.	4f\)	.	.	.
=59	=59	=59	=59	=59	=59	=59	=59	=59	=59	=59	=59	=59	=59	=59	=59
*	*	*	*	*	*	*	*	*	*	*	*	*^	*	*	*
2.r	2.r	4BB-/	4.BB-\	-tam	-sie-	.	4B-/	4.B-\	.	.	.	4d/	4.d\	.	.	.
.	.	8BB-/	.	.	-nie	.	8B-/	.	.	.	.	8d/	.	.	.	.
.	.	8r	8ryy	.	.	.	8r	8ryy	.	.	.	8r	8ryy	.	.	.
.	.	4E-\	4ryy	ad	i	.	4G-X/	4ryy	.	.	.	(>8c/L	4ryy	.	.	.
.	.	.	.	.	.	.	.	.	.	.	.	8G-X/J)	.	.	.	.
*	*	*v	*v	*	*	*	*	*	*	*	*	*v	*v	*	*	*
*	*	*	*	*	*	*v	*v	*	*	*	*	*	*	*
!!LO:LB:g=original
=60	=60	=60	=60	=60	=60	=60	=60	=60	=60	=60	=60	=60	=60
!	!	!LO:TX:t=P:problem=klamra łukowa	!	!	!	!	!LO:tup:b	!	!	!	!LO:tup:b	!	!
4r	4r	12F\L	.	je-	.	(>12F/L	.	.	.	(12F/L	.	.	.
.	.	12D\	.	.	.	12d/	.	.	.	12d/	.	.	.
.	.	12BB-\J	.	.	.	12B-/J	.	.	.	12B-/J	.	.	.
4r	4r	4FF/	.	-go	.	4F/	.	.	.	4f\	.	.	.
4FF\ 4F	8An</L 8e-	4F\	vi-	na-	.	4A/)	.	.	.	()8e-\L	.	.	.
.	8c/J	.	.	.	.	.	.	.	.	8d\J)	.	.	.
=61	=61	=61	=61	=61	=61	=61	=61	=61	=61	=61	=61	=61	=61
*^	*	*^	*	*	*	*^	*	*	*	*^	*	*	*
4BB-/	4BB-\	4B-/	4BB-/	4BB-\	-tam	-sie-	.	4B-/	4B-\	.	.	.	4B-/	4B-\	.	.	.
8r	2ryy	8r	8BB-/	8r	.	-nie	.	8B-/	8r	.	.	.	8B-/	8rA	.	.	.
!	!	!	!	!	!	!	!LO:DY:a	!	!	!	!	!LO:DY:a	!LO:TX:a:t=tutti	!	!	!	!LO:DY:a
8G\L 8B- 8d	.	8b-/L 8dd	8G\	8rEE	Quam	Na	f	8B-\	8r	.	.	.	8d\	8r	.	.	f
8G\ 8B- 8d	.	8b-/ 8dd	8G\	4ryy	o-	któ-	.	8B-\	4ryy	.	.	.	8d\	4ryy	.	.	.
8F\J 8A 8d	.	8a/J 8dd	8F\	.	-lim	-rą	.	8B-\	.	.	.	.	8d\	.	.	.	.
*v	*v	*	*	*	*	*	*	*	*	*	*	*	*	*	*	*	*
=62	=62	=62	=62	=62	=62	=62	=62	=62	=62	=62	=62	=62	=62	=62	=62	=62
*	*^	*	*	*	*	*	*	*	*	*	*	*	*	*	*	*
8.E-\L 8.G	8.g/L 8.dd	8.d</L	8.E-\	(>4E-/	A-	ma	.	8.G/	4G\	.	.	.	8.d/L	8.d\	.	.	.
16E-\Jk 16G	16g/Jk 16cc	16c</J	16E-\	.	-bra-	.	.	16G/	.	.	.	.	16c/Jk	16c\	.	.	.
8E-\ 8G	8g/ 8cc	8c</	8E-\	8E-/)	-he	.	.	8G/	8G\	.	.	.	8c/	8c\	.	.	.
8E-\L 8G	8g/L 8b-	8B-<L	4E-\	8ryy	pro-	przy-	.	4G/	8ryy	.	.	.	8B-/L	8ryy	.	.	.
8E-\ 8G	8g/ 8a	8c<	.	4ryy	.	.	.	.	4ryy	.	.	.	8A/J	4ryy	.	.	.
8E-\J 8G	8g/J	8c#<J	8E-\	.	-mi-	-rze-	.	8G/	.	.	.	.	8G/	.	.	.	.
*	*v	*v	*	*	*	*	*	*	*	*	*	*	*	*	*	*	*
*	*	*v	*v	*	*	*	*	*	*	*	*	*v	*v	*	*	*
*	*	*	*	*	*	*v	*v	*	*	*	*	*	*	*
!!LO:PB:g=original
=63	=63	=63	=63	=63	=63	=63	=63	=63	=63	=63	=63	=63	=63
[4D\ [>4F#X [4A [4d	4f#X/ 4dd	4D/	-si-	-cze-	.	4F#X/	.	.	.	4d\	.	.	.
8D\] 8F#] 8A] 8d]	8f#/ 8dd	8D/	-sti	-nie	.	8F#/	.	.	.	8d\	.	.	.
8C\L 8E-X 8F# 8A 8c	8f#/L 8a 8ee-	8C/	Quam	ma	.	8F#/	.	.	.	8e-\	.	.	.
8C\ 8E- 8F# 8A 8c	8f#/ 8a 8ee-	8C/	o-	przy-	.	8F#/	.	.	.	8e-\	.	.	.
8C\J 8E- 8F# 8A 8c	8f#/J 8a 8ee-	8C/	-lim	-rze-	.	8F#/	.	.	.	8e-\	.	.	.
=64	=64	=64	=64	=64	=64	=64	=64	=64	=64	=64	=64	=64	=64
*	*	*^	*	*	*	*^	*	*	*	*^	*	*	*
4C\ 4E-X 4F#X 4A 4c	4f#X/ 4a 4ee-	8.C/	4C\	A-	-cze-	.	8.F#X/	4F#\	.	.	.	8.e-\	4e-/	.	.	.
.	.	16C/	.	-bra-	.	.	16F#/	.	.	.	.	16e-\	.	.	.	.
8BB-\ 8D 8G 8B-	8g/ 8dd	8BB-/	8BB-\	-hae	-nie	.	8G/	8ryy	.	.	.	8d\	8ryy	.	.	.
4C\ 4E- 4F# 4A 4c	4f#/ 4a 4ee-	4C^/	4.C\	pro-	A-	.	4F#/	4.F#\	.	.	.	4e^-\	4.e-/	.	.	.
8C\ 8E- 8F# 8A 8c	8f#/ 8a 8ee-	8C/	.	-mi-	-bra-	.	8F#/	.	.	.	.	8e-\	.	.	.	.
*	*	*	*	*	*	*	*v	*v	*	*	*	*	*	*	*	*
=65	=65	=65	=65	=65	=65	=65	=65	=65	=65	=65	=65	=65	=65	=65	=65
4C\ 4E-X 4F#X 4A 4c	4f#X/ 4a 4ee-	(4C/	4C\	-si-	-ham	.	4F#X/	.	.	.	(4e-/	4e-\	.	.	.
8BB-\ 8D 8G 8B-	8g/ 8dd	8BB-/)	8BB-\	-sti	.	.	8G/	.	.	.	8d/)	8d\	.	.	.
8r	8r	8r	8ryy	.	.	.	8r	.	.	.	8r	8ryy	.	.	.
!	!	!	!	!	!	!	!	!	!	!	!LO:TX:a:t=Solo	!	!	!	!
4EE-/ 4E-	4g/ 4cc	4E-\	4ryy	et	i	.	4G/	.	.	.	4c\	4ryy	.	.	.
!!LO:LB:g=original
=66	=66	=66	=66	=66	=66	=66	=66	=66	=66	=66	=66	=66	=66	=66	=66
*	*	*	*	*	*	*	*^	*	*	*	*	*	*	*	*
4FF/ 4F	4f/ 4b- 4dd	4F\	4ryy	se-	je-	.	4B-\	4ryy	.	.	.	4d\	4ryy	.	.	.
4r	4r	8F\	4F/	-mi-	-go	.	8B-\	4B-/	.	.	.	8d\	4d/	.	.	.
.	.	8F\	.	-ni	.	.	8B-\	.	.	.	.	8d\	.	.	.	.
4r	4r	4F\	4ryy	e-	na-	.	(8B-\L	4ryy	.	.	.	(8c\L	4ryy	.	.	.
.	.	.	.	.	.	.	8A\J)	.	.	.	.	8f\J)	.	.	.	.
=67	=67	=67	=67	=67	=67	=67	=67	=67	=67	=67	=67	=67	=67	=67	=67	=67
*^	*	*	*	*	*	*	*	*	*	*	*	*	*	*	*	*
4r	2ryy	4r	4G/	4.G\	-jus	-sie-	.	4B-/	4.B-\	.	.	.	4d/	4.d\	.	.	.
4r	.	4r	8G/	.	.	-nie	.	8B-/	.	.	.	.	8d/	.	.	.	.
.	.	.	8r	8ryy	.	.	.	8r	8ryy	.	.	.	8ryy	8r	.	.	f
!	!	!	!	!	!	!	!	!	!	!	!	!	!LO:TX:t=tutti	!	!	!	!
8B-/L	4E-\ 4G	8b-\L 8gg	4E-\	4ryy	Et	i	.	(8B-\L	4ryy	.	.	.	(8g\L	4ryy	.	.	.
8c/J	.	8cc\J 8ee-	.	.	.	.	.	8c\J)	.	.	.	.	8e-\J)	.	.	.	.
*	*	*	*v	*v	*	*	*	*	*	*	*	*	*v	*v	*	*	*
*	*	*	*	*	*	*	*v	*v	*	*	*	*	*	*	*
=68	=68	=68	=68	=68	=68	=68	=68	=68	=68	=68	=68	=68	=68	=68
*	*^	*^	*	*	*	*	*	*	*	*	*	*	*	*
2F\ 2B- 2d	2ryy	2ryy	2dd/	2b-\	4F\	se-	je-	.	4B-\	.	.	.	4d\	.	.	.
.	.	.	.	.	8F\	-mi-	-go	.	8B-\L	.	.	.	8d\	.	.	.
.	.	.	.	.	8F\	-ni	.	.	8B-\J	.	.	.	8d\	.	.	.
4c/	4F\	8B-/L	8cc/L	8b-\L	4FF/ 4F	e-	na-	.	(8B-\L	.	.	.	(8c\L	.	.	.
.	.	8A/J	8ff/J	8a\J	.	.	.	.	8A\J)	.	.	.	8f\J)	.	.	.
*v	*v	*v	*	*	*	*	*	*	*	*	*	*	*	*	*	*
=69	=69	=69	=69	=69	=69	=69	=69	=69	=69	=69	=69	=69	=69	=69
!LO:TX:t=Ima	!	!	!	!	!	!	!	!	!	!	!	!	!	!
*>A1	*>A1	*>A1	*>A1	*>A1	*>A1	*>A1	*>A1	*>A1	*>A1	*>A1	*>A1	*>A1	*>A1	*>A1
*	*	*	*^	*	*	*	*^	*	*	*	*^	*	*	*
4B-\ 4d	4b-/	4b-\	4BB-/	4BB-\	-jus	-sie-	.	4B-/	4B-\	.	.	.	4B-/	4B-\	.	.	.
4AA-X/ 4A-X/	4a-X/	2ryy	8BB-/	4rCC	.	-nie	.	8B-/	4rc	.	.	.	8B-/	4rc	.	.	.
.	.	.	8r	.	.	.	.	8r	.	.	.	.	8r	.	.	.	.
4FF/ 4F	4f/	.	4r	4rB	.	.	.	4r	4rgg	.	.	.	4r	4rgg	.	.	.
!	!	!LO:TX:t=[segno]	!	!	!	!	!	!	!	!	!	!	!	!LO:TX:t=[segno]	!	!	!
=70||	=70||	=70||	=70||	=70||	=70||	=70||	=70||	=70||	=70||	=70||	=70||	=70||	=70||	=70||	=70||	=70||	=70||
!LO:TX:t=2da	!	!	!	!	!	!	!	!	!	!	!	!	!	!	!	!	!
*>A2	*A2	*A2	*A2	*A2	*A2	*A2	*A2	*A2	*A2	*A2	*A2	*A2	*A2	*A2	*A2	*A2	*A2
4B-\ 4d	4b-/	4b-\	4BB-/	4BB-\	jus	sie-	.	4B-/	4B-\	.	.	.	4B-/	4B-\	.	.	.
4r	4r	2ryy	8BB-/	4rCC	.	-nie	.	8B-/	4rc	.	.	.	8B-/	4rc	.	.	.
.	.	.	8r	.	.	.	.	8r	.	.	.	.	8rgg	.	.	.	.
4r	4r	.	4r	4rB	.	.	.	4r	4rgg	.	.	.	4r	4rgg	.	.	.
*	*v	*v	*	*	*	*	*	*v	*v	*	*	*	*v	*v	*	*	*
*	*	*v	*v	*	*	*	*	*	*	*	*	*	*	*
==	==	==	==	==	==	==	==	==	==	==	==	==	==
*-	*-	*-	*-	*-	*-	*-	*-	*-	*-	*-	*-	*-	*-
!!!system-decoration: {(s1,s2,s3)}{(s4,s5)}
!!!RDF**kern: > = above
!!!RDF**kern: < = below
!!!ENC: Andrzej Gręziak
!!!END: 2021-06-05
